!!!OTL: Enttaeuschung.
!!!OTL-incipit: DER WALDBEERSTRAUCH DER WAECHST WOHL AUS DER ERDEN
!!!ARE: Europa, Mitteleuropa, Deutschland, Niederrhein
!!!SCT: Z1184
!!!TXL: @@DE
!!!YEM: Copyright 1995, estate of Helmut Schaffrath.
**kern	**text
*ICvox	*
*M2/4	*
*k[b-e-]	*
*B-:	*
!LO:TX:a:t=Vom Niederrhein.	!
{8b-	Der
=1	=1
8cc	Waldbeer-
8a	.
8b-	-ſtrauch,
8b-	der
=2	=2
16ddL	Wald-
16ccJ	.
8a	-beer-
8b-}	-ſtrauch,
{8b-	der
=3	=3
8cc	wächſt
8dd	wohl
8ee-	aus
8ff	der
=4	=4
8ee-L	Er-
8ddJ	.
8cc}	-den,
{8cc	ich
=5	=5
8.cc	hab'
16dd	einmal
8ee-	.
8cc	ein
=6	=6
8dd	Schatʒ
8ee-	ge-
4ff}	-habt,
=7	=7
{8b-	ei,
8dd	ja,
4cc	ja!
=8	=8
8b-/	Schatʒ
8a	ge-
8g}	-habt,
{8f	der
=9	=9
8b-	iſt
8cc	weit
8.dd	in
16b-	der
=10	=10
4cc	Fer-
8b-/;}	-ne!
==	==
!!!AGN: Liebes - Lied
!!!ONB: ESAC (Essen Associative Code) Database: ZUCCAL
!!!AMT: simple duple
!!!AIN: vox
!!!EED: Helmut Schaffrath
!!!EEV: 1.0
!!!GTL: V. Lieder der Minne.
!!!URL-scan: https://www.digitale-sammlungen.de/de/view/bsb11160573?page=381
!!!ENC: Anna Maria Matuszewska
!!!EEV: 2025/02/05
*-	*-
